svg/filter_check_outline.svg

<svg xmlns="http://www.w3.org/2000/svg" viewBox="0 0 24 24"><path d="M13 19.88c.04.3-.06.62-.28.83-.4.39-1.03.39-1.42 0L7.29 16.7a.99.99 0 0 1-.29-.83v-5.12L2.21 4.62a1 1 0 0 1 .17-1.4c.19-.14.4-.22.62-.22h14c.22 0 .43.08.62.22a1 1 0 0 1 .17 1.4L13 10.75zM5.04 5 9 10.07v5.51l2 2v-7.53L14.96 5zm12.71 16L15 18l1.16-1.16 1.59 1.59 3.59-3.59 1.16 1.41z"/></svg>

<svg xmlns="http://www.w3.org/2000/svg" id="mdi-filter-check-outline" viewBox="0 0 24 24"><path d="M13 19.88C13.04 20.18 12.94 20.5 12.72 20.71C12.32 21.1 11.69 21.1 11.3 20.71L7.29 16.7C7.06 16.47 6.96 16.16 7 15.87V10.75L2.21 4.62C1.87 4.19 1.95 3.56 2.38 3.22C2.57 3.08 2.78 3 3 3H17C17.22 3 17.43 3.08 17.62 3.22C18.05 3.56 18.13 4.19 17.79 4.62L13 10.75V19.88M5.04 5L9 10.07V15.58L11 17.58V10.05L14.96 5H5.04M17.75 21L15 18L16.16 16.84L17.75 18.43L21.34 14.84L22.5 16.25L17.75 21" /></svg>
